icons/light/md.svg

<svg width="16" height="16" viewBox="0 0 16 16" fill="none" xmlns="http://www.w3.org/2000/svg">
<path d="M13.7067 12H2.29333C1.76667 12 1.33333 11.58 1.33333 11.06V4.94C1.33333 4.42 1.76667 4 2.29333 4H13.7067C14.2333 4 14.6667 4.42 14.6667 4.94V11.06C14.6667 11.58 14.2333 12 13.7067 12ZM4.54 10.1267V7.68667L5.82 9.25333L7.1 7.68667V10.1267H8.38667V5.87333H7.1L5.82 7.44L4.54 5.87333H3.26V10.1267H4.54ZM13.1267 8H11.8467V5.87333H10.5667V8H9.28L11.2067 10.1867L13.1267 8Z" fill="#424242"/>
</svg>

<svg xmlns="http://www.w3.org/2000/svg" width="16" height="16" fill="none" xmlns:v="https://vecta.io/nano"><path d="M13.707 12H2.293c-.527 0-.96-.42-.96-.94V4.94c0-.52.433-.94.96-.94h11.413c.527 0 .96.42.96.94v6.12c0 .52-.433.94-.96.94zM4.54 10.127v-2.44l1.28 1.567L7.1 7.687v2.44h1.287V5.873H7.1L5.82 7.44 4.54 5.873H3.26v4.253h1.28zM13.127 8h-1.28V5.873h-1.28V8H9.28l1.927 2.187L13.127 8z" fill="#424242"/></svg>
